lib/flags/gf-french-guiana.svg

<svg xmlns="http://www.w3.org/2000/svg" fill="none" aria-hidden="true" viewBox="0 0 42 30"><g id="Country=GF - French Guiana, Size=sm (36x24)" filter="url(#filter0_dd_91_28135)"><g clip-path="url(#clip0_91_28135)"><g id="flag"><mask id="mask0_91_28135" width="36" height="24" x="3" y="2" maskUnits="userSpaceOnUse" style="mask-type:alpha"><rect id="mask" width="36" height="24" x="3" y="2" fill="white"/></mask><g mask="url(#mask0_91_28135)"><g id="contents"><rect id="background" width="36" height="24" x="3" y="2" fill="#5EAA22" rx="2"/><path id="left" fill="#FECA00" fill-rule="evenodd" d="M3 2L39 26H3V2Z" clip-rule="evenodd"/><path id="mark" fill="#E21835" fill-rule="evenodd" d="M20.922 16.4063L17.0007 18.824L18.2537 14.6831L15.375 12.0379L19.2729 11.8948L20.922 7.80005L22.5711 11.8948H26.4623L23.5903 14.6831L25.0287 18.5796L20.922 16.4063Z" clip-rule="evenodd"/></g></g></g></g></g><defs><filter id="filter0_dd_91_28135" width="42" height="30" x="0" y="0" color-interpolation-filters="sRGB" filterUnits="userSpaceOnUse"><feFlood flood-opacity="0" result="BackgroundImageFix"/><feColorMatrix in="SourceAlpha" result="hardAlpha" values="0 0 0 0 0 0 0 0 0 0 0 0 0 0 0 0 0 0 127 0"/><feOffset dy="1"/><feGaussianBlur stdDeviation="1"/><feColorMatrix values="0 0 0 0 0.0627451 0 0 0 0 0.0941176 0 0 0 0 0.156863 0 0 0 0.06 0"/><feBlend in2="BackgroundImageFix" result="effect1_dropShadow_91_28135"/><feColorMatrix in="SourceAlpha" result="hardAlpha" values="0 0 0 0 0 0 0 0 0 0 0 0 0 0 0 0 0 0 127 0"/><feOffset dy="1"/><feGaussianBlur stdDeviation="1.5"/><feColorMatrix values="0 0 0 0 0.0627451 0 0 0 0 0.0941176 0 0 0 0 0.156863 0 0 0 0.1 0"/><feBlend in2="effect1_dropShadow_91_28135" result="effect2_dropShadow_91_28135"/><feBlend in="SourceGraphic" in2="effect2_dropShadow_91_28135" result="shape"/></filter><clipPath id="clip0_91_28135"><rect width="36" height="24" x="3" y="2" fill="white" rx="2"/></clipPath></defs></svg>

<svg xmlns="http://www.w3.org/2000/svg" fill="none" aria-hidden="true" viewBox="0 0 42 30"><g filter="url(#a)"><g clip-path="url(#b)"><mask id="c" width="36" height="24" x="3" y="2" maskUnits="userSpaceOnUse" style="mask-type:alpha"><path fill="#fff" d="M3 2h36v24H3z"/></mask><g mask="url(#c)"><rect width="36" height="24" x="3" y="2" fill="#5EAA22" rx="2"/><path fill="#FECA00" fill-rule="evenodd" d="m3 2 36 24H3V2Z" clip-rule="evenodd"/><path fill="#E21835" fill-rule="evenodd" d="m20.922 16.406-3.921 2.418 1.253-4.14-2.879-2.646 3.898-.143L20.922 7.8l1.65 4.095h3.89l-2.872 2.788 1.439 3.897-4.107-2.174Z" clip-rule="evenodd"/></g></g></g><defs><clipPath id="b"><rect width="36" height="24" x="3" y="2" fill="#fff" rx="2"/></clipPath><filter id="a" width="42" height="30" x="0" y="0" color-interpolation-filters="sRGB" filterUnits="userSpaceOnUse"><feFlood flood-opacity="0" result="BackgroundImageFix"/><feColorMatrix in="SourceAlpha" result="hardAlpha" values="0 0 0 0 0 0 0 0 0 0 0 0 0 0 0 0 0 0 127 0"/><feOffset dy="1"/><feGaussianBlur stdDeviation="1"/><feColorMatrix values="0 0 0 0 0.0627451 0 0 0 0 0.0941176 0 0 0 0 0.156863 0 0 0 0.06 0"/><feBlend in2="BackgroundImageFix" result="effect1_dropShadow_91_28135"/><feColorMatrix in="SourceAlpha" result="hardAlpha" values="0 0 0 0 0 0 0 0 0 0 0 0 0 0 0 0 0 0 127 0"/><feOffset dy="1"/><feGaussianBlur stdDeviation="1.5"/><feColorMatrix values="0 0 0 0 0.0627451 0 0 0 0 0.0941176 0 0 0 0 0.156863 0 0 0 0.1 0"/><feBlend in2="effect1_dropShadow_91_28135" result="effect2_dropShadow_91_28135"/><feBlend in="SourceGraphic" in2="effect2_dropShadow_91_28135" result="shape"/></filter></defs></svg>
